svgs/duotone/square-sliders-vertical.svg

<svg xmlns="http://www.w3.org/2000/svg" viewBox="0 0 448 512"><!--! Font Awesome Pro 6.4.0 by @fontawesome - https://fontawesome.com License - https://fontawesome.com/license (Commercial License) Copyright 2023 Fonticons, Inc. --><defs><style>.fa-secondary{opacity:.4}</style></defs><path class="fa-primary" d="M96 160c-17.7 0-32 14.3-32 32s14.3 32 32 32h96c17.7 0 32-14.3 32-32s-14.3-32-32-32H96zM256 288c-17.7 0-32 14.3-32 32s14.3 32 32 32h96c17.7 0 32-14.3 32-32s-14.3-32-32-32H256z"/><path class="fa-secondary" d="M0 96C0 60.7 28.7 32 64 32H384c35.3 0 64 28.7 64 64V416c0 35.3-28.7 64-64 64H64c-35.3 0-64-28.7-64-64V96zm144 0c-17.7 0-32 14.3-32 32v32H96c-17.7 0-32 14.3-32 32s14.3 32 32 32h16V384c0 17.7 14.3 32 32 32s32-14.3 32-32V224h16c17.7 0 32-14.3 32-32s-14.3-32-32-32H176V128c0-17.7-14.3-32-32-32zm192 32c0-17.7-14.3-32-32-32s-32 14.3-32 32V288H256c-17.7 0-32 14.3-32 32s14.3 32 32 32h16v32c0 17.7 14.3 32 32 32s32-14.3 32-32V352h16c17.7 0 32-14.3 32-32s-14.3-32-32-32H336V128z"/></svg>

<svg xmlns="http://www.w3.org/2000/svg" viewBox="0 0 448 512"><!--! Font Awesome Pro 6.3.0 by @fontawesome - https://fontawesome.com License - https://fontawesome.com/license (Commercial License) Copyright 2023 Fonticons, Inc. --><defs><style>.fa-secondary{opacity:.4}</style></defs><path class="fa-primary" d="M192 160C209.7 160 224 174.3 224 192C224 209.7 209.7 224 192 224H96C78.33 224 64 209.7 64 192C64 174.3 78.33 160 96 160H192zM352 288C369.7 288 384 302.3 384 320C384 337.7 369.7 352 352 352H256C238.3 352 224 337.7 224 320C224 302.3 238.3 288 256 288H352z"/><path class="fa-secondary" d="M0 96C0 60.65 28.65 32 64 32H384C419.3 32 448 60.65 448 96V416C448 451.3 419.3 480 384 480H64C28.65 480 0 451.3 0 416V96zM112 128V160H96C78.33 160 64 174.3 64 192C64 209.7 78.33 224 96 224H112V384C112 401.7 126.3 416 144 416C161.7 416 176 401.7 176 384V224H192C209.7 224 224 209.7 224 192C224 174.3 209.7 160 192 160H176V128C176 110.3 161.7 96 144 96C126.3 96 112 110.3 112 128zM336 128C336 110.3 321.7 96 304 96C286.3 96 272 110.3 272 128V288H256C238.3 288 224 302.3 224 320C224 337.7 238.3 352 256 352H272V384C272 401.7 286.3 416 304 416C321.7 416 336 401.7 336 384V352H352C369.7 352 384 337.7 384 320C384 302.3 369.7 288 352 288H336V128z"/></svg>
